!!!COM: Music21
!!!OTL: O agarradiño
!!!OMV: pezas_mazurcas_o-agarradino_o-agarradino-partitura.musicxml
**kern
*I"Gaita
*I'Bag
*clefG^2
*k[]
*M3/4
*MM170
=1
!LO:TX:a:t=[quarter]=170
4r
8eeL
8ggJ
8eeL
8ggJ
=||
4cc
8eeL
8ggJ
8eeL
8ggJ
=
4dd
8ddL
8eeJ
8ffL
8ggJ
=
4dd
8ddL
8eeJ
8ffL
8ggJ
=
4cc
8eeL
8ggJ
8eeL
8ggJ
=
4cc
8eeL
8ggJ
8eeL
8ggJ
=
4dd
8ddL
8eeJ
8ffL
8ggJ
=
8bbL
8aaJ
8ggL
8ffJ
8eeL
8ddJ
!!linebreak:original
=
4cc
8eeL
8ggJ
8eeL
8ggJ
=||
4cc
8eeL
8ggJ
8eeL
8ggJ
=
4dd
8ddL
8eeJ
8ffL
8ggJ
=
4dd
8ddL
8eeJ
8ffL
8ggJ
=
4cc
8eeL
8ggJ
8eeL
8ggJ
=
4cc
8eeL
8ggJ
8eeL
8ggJ
=
4dd
8ddL
8eeJ
8ffL
8ggJ
=
8bbL
8aaJ
8ggL
8ffJ
8eeL
8ddJ
=
2cc
8eeL
8ggJ
!!linebreak:original
=||
4.ccc
8aa
8aaL
8ggJ
=
4.bb
8aa
8aaL
8ggJ
=
4.bb
8aa
8aaL
8ggJ
=
2ccc
8eeL
8ggJ
=
4.ccc
8aa
8aaL
8ggJ
=
4.bb
8aa
8aaL
8ggJ
!!linebreak:original
=
8bbL
8aaJ
8ggL
8ffJ
8eeL
8ddJ
=
2cc
8eeL
8ggJ
=||
4.ccc
8aa
8aaL
8ggJ
=
4.bb
8aa
8aaL
8ggJ
=
4.bb
8aa
8aaL
8ggJ
=
2ccc
8eeL
8ggJ
=
4.ccc
8aa
8aaL
8ggJ
=
4.bb
8aa
8aaL
8ggJ
=
8bbL
8aaJ
8ggL
8ffJ
8eeL
8ddJ
!!linebreak:original
=||
4cc
8eeL
8ggJ
8eeL
8ggJ
=||
8cc
8r
2r
==
*-
